X:1
T:Title
L:1/8
M:4/4
I:linebreak $
K:G
V:1 treble nm="Voice"
V:1
"D" AGAc"G" BG (3GGG | BGBd g2 fg |"D" eA (3AAA"G" G2 Bd | e2 dc Bdgd |"D" AGAc"G" BG (3GGG | %5
 BGBd g2 ga | bgaf"C" ge"D" (3def |"G" gedc BG (3GGG ::"G" bg (3ggg"C" agef |"G" gage"D" dega | %10
"G" bg (3ggg aged |"C" ea (3aaa"D" ea a2 |"G" bg (3ggg"C" agef |"G" gage"D" dega | %14
"G" bgaf"C" ge"D" (3def |"G" gedc BG G2 :| %16
